tools/download-figma-icons/icons/outlined-medium/plant-leaf.svg

<svg width="24" height="24" viewBox="0 0 24 24" fill="none" xmlns="http://www.w3.org/2000/svg">
<path fill-rule="evenodd" clip-rule="evenodd" d="M22.3309 0.655104C22.2979 0.401604 22.1389 0.182604 21.9094 0.0731044C21.6777 -0.0356456 21.4084 -0.0206456 21.1902 0.112854C19.4269 1.20935 16.3669 2.1686 12.7939 2.74235C4.86794 4.01885 2.74094 7.30985 2.35244 9.84636C1.77194 13.6391 3.80594 16.4074 4.75694 17.4679C2.64644 20.6681 3.12344 23.2624 3.15119 23.3981C3.22244 23.7536 3.53444 23.9966 3.88319 23.9966C3.93119 23.9966 3.97994 23.9914 4.02944 23.9824C4.43369 23.9029 4.69769 23.5099 4.62194 23.1049C4.59569 22.9639 4.01969 19.6189 8.04644 15.9334C8.35619 15.6506 8.66369 15.3746 8.97194 15.0971L13.6594 13.9991C14.0637 13.9046 14.3142 13.5011 14.2197 13.0984C14.1252 12.6949 13.7217 12.4459 13.3182 12.5389L11.3119 13.0091C14.0697 10.5581 16.4262 8.42661 17.5174 6.65885C17.7349 6.30635 17.6262 5.84436 17.2737 5.62685C16.9189 5.40786 16.4584 5.51885 16.2417 5.8706C15.5344 7.0151 14.1477 8.40711 12.4324 9.98211V7.4066C12.4324 6.99185 12.0964 6.6566 11.6824 6.6566C11.2677 6.6566 10.9324 6.99185 10.9324 7.4066V11.3389C10.5882 11.6456 10.2357 11.9584 9.87719 12.2771C8.95244 13.0984 7.99244 13.9504 7.03394 14.8271C6.51644 15.3011 6.07544 15.7714 5.68244 16.2356C4.84919 15.2231 3.39044 12.9791 3.83519 10.0736C4.40294 6.37085 9.15044 4.8491 13.0332 4.2236C14.9622 3.9131 18.3319 3.2336 20.9119 1.9751C20.9667 4.0121 20.7709 8.50686 18.4662 13.0084C15.1489 19.4854 8.42219 18.4054 8.13719 18.3581C7.72769 18.2824 7.33994 18.5576 7.26869 18.9656C7.19594 19.3736 7.46894 19.7629 7.87694 19.8341C7.89794 19.8379 8.47169 19.9331 9.37769 19.9331C11.8999 19.9331 16.9834 19.1959 19.8004 13.6924C23.1222 7.20486 22.3647 0.919854 22.3309 0.655104Z" fill="black"/>
</svg>

<svg width="24" height="24" viewBox="0 0 24 24" fill="none" xmlns="http://www.w3.org/2000/svg"><path fill-rule="evenodd" clip-rule="evenodd" d="M22.33.655a.752.752 0 0 0-1.14-.542c-1.763 1.096-4.823 2.056-8.396 2.63C4.868 4.018 2.74 7.31 2.352 9.845c-.58 3.793 1.454 6.561 2.405 7.622-2.11 3.2-1.634 5.794-1.606 5.93a.745.745 0 0 0 .878.584.753.753 0 0 0 .593-.877c-.026-.141-.602-3.486 3.424-7.172.31-.282.618-.558.926-.836L13.659 14a.75.75 0 1 0-.34-1.46l-2.007.47c2.758-2.45 5.114-4.582 6.205-6.35a.75.75 0 1 0-1.275-.788c-.708 1.144-2.094 2.536-3.81 4.111V7.407a.75.75 0 1 0-1.5 0v3.932l-1.055.938c-.925.821-1.885 1.673-2.843 2.55a15.29 15.29 0 0 0-1.352 1.409c-.833-1.013-2.292-3.257-1.847-6.162.568-3.703 5.315-5.225 9.198-5.85 1.93-.31 5.299-.99 7.879-2.249.055 2.037-.141 6.532-2.446 11.033-3.317 6.477-10.044 5.397-10.329 5.35a.745.745 0 0 0-.868.608c-.073.408.2.797.608.868.02.004.595.1 1.5.1 2.523 0 7.606-.738 10.423-6.242C23.122 7.205 22.365.92 22.33.655Z" fill="currentColor"/></svg>
